svgs/thin/elephant.svg

<svg xmlns="http://www.w3.org/2000/svg" viewBox="0 0 640 512"><!--! Font Awesome Pro 6.0.0-alpha3 by @fontawesome - https://fontawesome.com License - https://fontawesome.com/license (Commercial License) --><path d="M528 128c-8.836 0-16 7.162-16 15.1c0 8.836 7.164 15.99 16 15.99S544 152.9 544 144C544 135.2 536.8 128 528 128zM512 32.05L455.1 32C437.5 12.49 412.3 0 384 0c-5.771 0-11.67 .5195-17.67 1.604c-21 3.801-39.78 15.06-53.76 30.63C312.4 32.22 312.2 32 312 32h-112C89.54 32 0 121.5 0 232v128c0 4.406 3.594 8 8 8s8-3.594 8-8v-128c0-101.6 82.38-184 184-184h100.9c-5.211 8.92-9.119 18.63-11.11 28.96C280.2 126.8 309.3 170.9 352 186.1v5.989C352 209.8 366.3 224 384 224c0 29.79 20.44 54.6 48 61.74V480c0 8.836-7.164 16-16 16h-48c-8.836 0-16-7.164-16-16v-103.1c6.756-3.119 13.57-6.137 20-9.873c3.844-2.219 5.125-7.094 2.906-10.91c-2.219-3.875-7.188-5.188-10.91-2.906c-69.44 40.25-162.6 40.25-232 0c-3.75-2.281-8.719-.9687-10.91 2.906C118.9 359.1 120.2 364.8 124 367.1c6.434 3.736 13.24 6.754 20 9.873V480c0 8.836-7.164 16-16 16L80 496C71.16 496 64 488.8 64 480V232C64 227.6 60.42 224 56 224S48 227.6 48 232V480c0 17.67 14.33 32 32 32H128c17.67 0 32-14.33 32-32v-96.28C187.8 394.2 217.6 400 248 400s60.18-5.797 88-16.28V480c0 17.67 14.33 32 32 32H416c17.67 0 32-14.33 32-32V288l64 .0092c23.5 0 45.13-6.746 64-17.75v96.81c0 8.52-6.266 16.22-14.76 16.85c-8.293 .6152-15.32-4.998-16.9-12.66C542 360.1 532.3 352 520.9 352h-16.24c-14.66 0-25.9 13.04-23.79 27.55c5.611 38.68 39.02 68.48 79.23 68.48c6.389 0 12.91-.7291 19.56-2.319C615.7 437.1 640 403.2 640 366.1v-206.1C640 89.34 582.7 32.05 512 32.05zM624 364c0 31.04-19.6 58.69-46.6 65.75c-5.781 1.512-11.62 2.277-17.37 2.277c-32.19 0-58.92-23.9-63.37-54.95C495.1 372.3 499.8 368 504.6 368h16.23c3.828 0 7.018 2.744 7.793 6.494c3.217 15.54 17.73 26.99 34.54 25.35C579.8 398.2 592 383.3 592 366.6V270.3c0-5.729-3.062-11.02-8.027-13.87C581.5 254.1 578.8 254.3 576 254.3c-2.783 0-5.568 .7266-8.057 2.176C550.2 266.8 531.4 272 512 272h-64c-26.47 0-48-21.53-48-48h24c4.406 0 8-3.594 8-8S428.4 208 424 208H384c-8.836 0-16-7.164-16-16V186.1c0-6.885-4.449-12.85-10.93-15.18C319.6 157.5 297.1 119.3 305.5 79.98c6.006-31.19 32.17-56.95 63.63-62.64C374.1 16.45 379.1 16 384 16c22.81 .002 43.96 9.611 59.51 27.05C446.4 46.32 450.7 48 455.1 48H512c61.86 0 112 50.14 112 112V364z"/></svg>

<svg xmlns="http://www.w3.org/2000/svg" viewBox="0 0 640 512"><!-- Font Awesome Pro 6.0.0-alpha2 by @fontawesome - https://fontawesome.com License - https://fontawesome.com/license (Commercial License) --><path d="M528 128C519.164 128 512 135.162 512 144C512 152.836 519.164 160 528 160S544 152.836 544 144C544 135.162 536.836 128 528 128ZM512 32H455.086C437.516 12.494 412.32 0 384 0C378.229 0 372.328 0.52 366.334 1.604C345.33 5.404 326.551 16.664 312.57 32.236C312.352 32.219 312.223 32 312 32H200C89.543 32 0 121.543 0 232V360C0 364.406 3.594 368 8 368S16 364.406 16 360V232C16 130.379 98.379 48 200 48H300.947C295.736 56.92 291.828 66.629 289.838 76.959C280.246 126.777 309.258 170.926 352 186.121V192C352 209.672 366.326 224 384 224C384 253.787 404.443 278.6 432 285.736V480C432 488.836 424.836 496 416 496H368C359.164 496 352 488.836 352 480V376.936C358.756 373.816 365.566 370.799 372 367.062C375.844 364.844 377.125 359.969 374.906 356.156C372.688 352.281 367.719 350.969 364 353.25C294.562 393.5 201.438 393.5 132 353.25C128.25 350.969 123.281 352.281 121.094 356.156C118.875 359.969 120.156 364.844 124 367.062C130.434 370.799 137.244 373.816 144 376.936V480C144 488.836 136.836 496 128 496H80C71.164 496 64 488.836 64 480V232C64 227.582 60.418 224 56 224S48 227.582 48 232V480C48 497.672 62.326 512 80 512H128C145.674 512 160 497.672 160 480V383.717C187.822 394.203 217.572 400 248 400S308.178 394.203 336 383.717V480C336 497.672 350.326 512 368 512H416C433.674 512 448 497.672 448 480V288H512C535.5 288 557.125 281.25 576 270.25V367.1C576 375.619 569.734 383.324 561.238 383.953C552.945 384.568 545.92 378.955 544.334 371.289C542.02 360.094 532.293 352 520.861 352H504.623C489.963 352 478.725 365.039 480.83 379.547C486.441 418.223 519.809 448.051 560.025 448.051C566.414 448.051 572.973 447.297 579.625 445.707C615.682 437.094 640 403.174 640 366.104V160C640 89.307 582.693 32 512 32ZM624 364.025C624 395.066 604.4 422.719 577.398 429.773C571.617 431.285 565.773 432.051 560.025 432.051C527.838 432.051 501.105 408.146 496.652 377.102C495.963 372.303 499.791 368 504.639 368H520.869C524.697 368 527.887 370.744 528.662 374.494C531.879 390.031 546.393 401.482 563.197 399.844C579.822 398.221 592 383.277 592 366.574V270.25C592 264.521 588.938 259.23 583.973 256.377C581.504 254.959 578.752 254.25 576 254.25C573.217 254.25 570.432 254.977 567.943 256.426C550.211 266.76 531.389 272 512 272H448C421.533 272 400 250.467 400 224H424C428.406 224 432 220.406 432 216S428.406 208 424 208H384C375.164 208 368 200.836 368 192V186.121C368 179.236 363.551 173.271 357.074 170.941C319.645 157.48 297.984 119.279 305.549 79.984C311.555 48.797 337.723 23.039 369.182 17.348C374.125 16.453 379.109 16 384 16C406.809 16.002 427.961 25.611 443.506 43.051C446.42 46.32 450.73 48 455.111 48H512C573.855 48 624 98.145 624 160V364.025Z"/></svg>
